X:1
T:Cross and Crown (Houseley), CM
T:Henry Houseley, 1896
T:Cross and Crown (Houseley), CM
T:Public Domain
C:Henry Houseley, 1896
Z:Public Domain
%%score ( 1 2 ) ( 3 4 )
L:1/8
M:4/4
K:G
V:1 treble 
V:2 treble 
V:3 bass 
V:4 bass 
V:1
 D2 | D2 E2 E2 G2 | G3 F F2 [CF]2 | [CD]3 [DFA] [DFA]2 [DF^A]2 | [DGB]6 [AB]2 | %5
 [^GB]3 [GB] [Gc]2 [Gd]2 | [^Gd]3 [Ac] [Ac]2 [Ac]2 | [GB]3 [GB] [FB]2 [FA]2 | [DG]6 |] %9
V:2
 D2 | B,8 | [CD]6 x2 | x8 | x8 | x8 | x8 | x8 | x6 |] %9
V:3
 D,2 | D,2 E,2 E,2 G,2 | G,3 F, F,2 [A,,E,]2 | [D,F,]3 [D,C] [D,C]2 [D,C]2 | [G,B,]6 [=F,D]2 | %5
 [E,D]3 [E,D] [E,E]2 [E,=F]2 | [A,=F]3 [A,E] [A,E]2 [C,_E]2 | [D,D]3 [D,D] [D,D]2 [D,C]2 | %8
 [G,B,]6 |] %9
V:4
 D,2 | G,,8 | [A,,D,]6 x2 | x8 | x8 | x8 | x8 | x8 | x6 |] %9

